portfolio/07/img/money-bill-transfer-solid.svg

<svg xmlns="http://www.w3.org/2000/svg" viewBox="0 0 640 512"><!--! Font Awesome Pro 6.1.2 by @fontawesome - https://fontawesome.com License - https://fontawesome.com/license (Commercial License) Copyright 2022 Fonticons, Inc. --><path d="M535 7.03C544.4-2.343 559.6-2.343 568.1 7.029L632.1 71.02C637.5 75.52 640 81.63 640 87.99C640 94.36 637.5 100.5 632.1 104.1L568.1 168.1C559.6 178.3 544.4 178.3 535 168.1C525.7 159.6 525.7 144.4 535 135L558.1 111.1L384 111.1C370.7 111.1 360 101.2 360 87.99C360 74.74 370.7 63.99 384 63.99L558.1 63.1L535 40.97C525.7 31.6 525.7 16.4 535 7.03V7.03zM104.1 376.1L81.94 400L255.1 399.1C269.3 399.1 279.1 410.7 279.1 423.1C279.1 437.2 269.3 447.1 255.1 447.1L81.95 448L104.1 471C114.3 480.4 114.3 495.6 104.1 504.1C95.6 514.3 80.4 514.3 71.03 504.1L7.029 440.1C2.528 436.5-.0003 430.4 0 423.1C0 417.6 2.529 411.5 7.03 407L71.03 343C80.4 333.7 95.6 333.7 104.1 343C114.3 352.4 114.3 367.6 104.1 376.1H104.1zM95.1 64H337.9C334.1 71.18 332 79.34 332 87.1C332 116.7 355.3 139.1 384 139.1L481.1 139.1C484.4 157.5 494.9 172.5 509.4 181.9C511.1 184.3 513.1 186.6 515.2 188.8C535.5 209.1 568.5 209.1 588.8 188.8L608 169.5V384C608 419.3 579.3 448 544 448H302.1C305.9 440.8 307.1 432.7 307.1 423.1C307.1 395.3 284.7 371.1 255.1 371.1L158.9 372C155.5 354.5 145.1 339.5 130.6 330.1C128.9 327.7 126.9 325.4 124.8 323.2C104.5 302.9 71.54 302.9 51.23 323.2L31.1 342.5V128C31.1 92.65 60.65 64 95.1 64V64zM95.1 192C131.3 192 159.1 163.3 159.1 128H95.1V192zM544 384V320C508.7 320 480 348.7 480 384H544zM319.1 352C373 352 416 309 416 256C416 202.1 373 160 319.1 160C266.1 160 223.1 202.1 223.1 256C223.1 309 266.1 352 319.1 352z"/></svg>

<?xml version="1.0" encoding="utf-8"?>
<!-- Generator: Adobe Illustrator 24.1.2, SVG Export Plug-In . SVG Version: 6.00 Build 0)  -->
<svg version="1.1" id="Layer_1" xmlns="http://www.w3.org/2000/svg" xmlns:xlink="http://www.w3.org/1999/xlink" x="0px" y="0px"
	 viewBox="0 0 640 512" style="enable-background:new 0 0 640 512;" xml:space="preserve">
<style type="text/css">
	.st0{fill:#64748B;}
</style>
<path class="st0" d="M535,7c9.4-9.4,24.6-9.4,33.1,0l64,64c5.4,4.5,7.9,10.6,7.9,17c0,6.4-2.5,12.5-7.9,16.1l-64,64
	c-8.5,10.2-23.7,10.2-33.1,0c-9.3-8.5-9.3-23.7,0-33.1l23.1-23.9H384c-13.3,0-24-9.9-24-23.1c0-13.3,10.7-24,24-24l174.1-0.9L535,41
	C525.7,31.6,525.7,16.4,535,7L535,7z M104.1,376.1L81.9,400l173.2-0.9c14.2,0,24,11.6,24,24c0,14.1-9.8,24-24,24L81.9,448l22.2,23
	c10.2,9.4,10.2,24.6,0,33.1c-8.5,10.2-23.7,10.2-33.1,0l-64-64c-4.5-3.6-7-9.7-7-17c0-5.5,2.5-11.6,7-16.1l64-64
	c9.4-9.3,24.6-9.3,33.1,0C114.3,352.4,114.3,367.6,104.1,376.1L104.1,376.1z M95.1,64h242.8c-3.8,7.2-5.9,15.3-5.9,23.1
	c0,29.6,23.3,52,52,52h97.1c3.3,18.4,13.8,33.4,28.3,42.8c1.7,2.4,3.7,4.7,5.8,6.9c20.3,20.3,53.3,20.3,73.6,0l19.2-19.3V384
	c0,35.3-28.7,64-64,64H302.1c3.8-7.2,5-15.3,5-24.9c0-27.8-22.4-52-52-52l-96.2,0.9c-3.4-17.5-13.8-32.5-28.3-41.9
	c-1.7-2.4-3.7-4.7-5.8-6.9c-20.3-20.3-53.3-20.3-73.6,0l-20.1,19.3V128C31.1,92.6,60.7,64,95.1,64L95.1,64z M95.1,192
	c36.2,0,64-28.7,64-64h-64V192z M544,384v-64c-35.3,0-64,28.7-64,64H544z M319.1,352c53.9,0,96.9-43,96.9-96c0-53.9-43-96-96.9-96
	c-53,0-96,42.1-96,96C223.1,309,266.1,352,319.1,352z"/>
</svg>
